X: 11569
T: Editor's Favourite
R: strathspey
M: 4/4
K: Amajor
TA2 ((3efg) (a<e) f2|e<c e>f Te>c B<e|TA2 ((3efg) (a<e) f2|1 e<c B>c B<A A>B:|2 e<c B>d c<A A>d||
|:Tc2 (e>c) A>c e<c|{c}d2 (f>d) f<a Tf>d|c>d e>c A>c e<a|1 f>d e<c B/B/B B>d:|2 f>d e<c B/B/B B>c||

